X:532351 F:http://www.vwml.org/record/HAM/5/32/35%%VWML:HAM-5-32-35-0 T:Down by the Riverside
S:Mrs Marina Russell, Upwey coll. HED Hammond
O:England
A:Dorset
N:Transcribed from HAM-05-089.gif
F:HAM-05-32-35.abc
Z:EFDSS;PJHeadford
M:C
L:1/8
Q:1/2=50
K:G
D2|G2 G G (G A) (B c)|d4e4|(d2B2) BAG2|E4 G2A2|B2cB A2G2| F4E4|D4 D2D2|G3A B2c2|d2B2 G2c2|B4A4|G6||
W:Transcribed from HAM-05-089.gif
% downloaded from http://folkopedia.efdss.org/HAM-05-32-36.abc X:53236
F:http://www.vwml.org/record/HAM/5/32/36%%VWML:HAM-5-32-36-0 T:Astrologer, The
S:Mrs Marina Russell, Upwey coll. HED Hammond
O:England
A:Dorset
N:Transcribed from HAM-02-238.gif
F:HAM-05-32-36.abc
Z:EFDSS;PJHeadford
M:C
L:1/8
Q:2/4=50
K:C
E2|D3E F2G2|Ad3 d3A|G3F D2D2|D6 D2|
D3E F2G2|A2d4 c2|B2B2 A2G2|A6 G2|A AA2 c3B|
A AA2 c3B|A2A2 G2F2|E6 D2|D3D F2G2|A2d2 d2D2|
FF3 E3E|D6||x"< or ends"x|A2d2 d2c2|AA3 GFD2D6||
W:Transcribed from HAM-02-238.gif - Hammond's field notes
W:The MIDI file HAM-05-32-36.mid plays two verses, the second using the alternative ending.
